!!!!SEGMENT: pl-kk--kk-i-7--082_gorczycki-grzegorz-gerwazy--tota-pulchra-es-maria.krn
!!!cenid: 16xx:921
!!!COM: Gorczycki, Grzegorz Gerwazy
!!!COM-rismID: pe30009207
!!!CDT: ~1666-1734/04/30
!!!CNT: Polish
!!!OTL: Tota pulchra es Maria
!!!PDT:
!!!AGN: Sacred
!!!SMS-siglum: PL-Kk
!!!SMS-shelfmark: Kk.I.7
!!!SMS-shelfwork: 082 W
!!!SMS-variant:
!!!SMS-altvar:
!!!NIFC-rismSourceID: 300258077
!!!NIFC-rismChildID: 300258159
!!!NIFC-islandoraID: pl-kk:1956
!!!URL-pdf-islandora: https://repozytorium.nifc.pl/islandora/object/pl-kk%3A1956/datastream/PDF/view
!!!URL-scan: https://polish.musicsources.pl/pl/lokalizacje/galeria/rekopisy/6140 @EN{Scan on Polish Music Sources Website} @PL{Skany w portalu Dziedzictwo Muzyki Polskiej w otwartym dostępie}
!!!ONB-nifc: UWAGA: C (skan 0070-0071, s.133-134), A (brak), T(0233-0234, s.129-130), B(0320-0321, s.127-128). Następny utwór: Regina caeli
!!!AIN: 1 alto 1 bass 1 soprn 1 tenor
!!!key:
**kern	**text	**kern	**text	**kern	**kern	**text
*part4	*part4	*part3	*part3	*part2	*part1	*part1
*staff4	*staff4	*staff3	*staff3	*staff2	*staff1	*staff1
*Ibass	*	*Itenor	*	*Ialto	*Isoprn	*
*I"BASSVS.	*	*I"TENOR.	*	*I"ALTVS.	*I"CANTVS.	*
*I'B	*	*I'T	*	*I'A	*I'S	*
*clefF4	*	*clefC4	*	*clefG2	*clefC1	*
*k[f#]	*	*k[f#]	*	*k[f#]	*k[f#]	*
*e:	*	*e:	*	*e:	*e:	*
*M2/1	*	*M2/1	*	*M2/1	*M2/1	*
*met(c|)	*	*met(c|)	*	*met(c|)	*met(c|)	*
=1	=1	=1	=1	=1	=1	=1
*xywh-#320:7282,1870,6065,1089	*	*	*	*	*	*
*	*	*xywh-#233:7228,1677,6194,873	*	*	*	*
*	*	*	*	*	*xywh-#70:7442,3218,6063,859	*
!	!	!LO:TX:t=P:krzyżyki:problem=F#, f# (jeden nad drugim)	!	!	!	!
!LO:TX:a:t=P:problem=4\left or middle&colon; global	!	!LO:TX:a:t=P:problem=4\left or middle&colon; global	!	!	!LO:TX:a:t=P:problem=4\left or middle&colon; global	!
!	!	!	!	!LO:TX:t=P:problem=brak partii	!	!
2r	.	2r	.	0ryy	2r	.
1E\	To-	1B\	To-	.	1ee\	To-
!	!	!	!	!	!LO:TX:t=P:problem=kreska pseudotaktowa	!
*2\right	*	*2\right	*	*	*2\right	*
!	!	!LO:TX:t=P:problem=kreska pseudotaktowa	!	!	!	!
2D#X\	-ta	2B\	-ta	.	2b\	-ta
=2-	=2-	=2-	=2-	=2-	=2-	=2-
2E\	pul-	2B\	pul-	0ryy	2g/	pul-
2BB/	-chra	2B\	-chra	.	2f#X/	-chra
2C/	es	2G/	es	.	2e/	es
1GG/	o	2B\	Ma-	.	1b\	o
=3-	=3-	=3-	=3-	=3-	=3-	=3-
!	!	!LO:TX:t=P:problem=kreska pseudotaktowa	!	!	!	!
.	.	1e\	-ri-	0ryy	.	.
!LO:TX:t=P:problem=kreska pseudotaktowa	!	!	!	!	!LO:TX:t=P:problem=kreska pseudotaktowa	!
2AA/	Ma-	.	.	.	2cc#X\	Ma-
0BB/	-ri-	4d#X\	.	.	2dd#X\	-ri-
.	.	4c\	.	.	.	.
.	.	4B\	.	.	1ee\	.
.	.	4A\	.	.	.	.
=4-	=4-	=4-	=4-	=4-	=4-	=4-
.	.	4G/	.	0ryy	.	.
.	.	4E/	.	.	.	.
!	!	!LO:TX:t=P:problem=kreska pseudotaktowa	!	!	!LO:TX:t=P:problem=kreska pseudotaktowa	!
.	.	2B\	.	.	2dd#X\	.
!LO:TX:t=P:problem=cezura na 3. linii	!	!LO:TX:t=P:problem=kreska pseudotaktowa	!	!	!LO:TX:t=P:problem=cezura nad 5. linią	!
2E,<\	-a	1B\	-a	.	2ee,<\	-a
1E\	to-	.	.	.	1g\	-pul-
=5-	=5-	=5-	=5-	=5-	=5-	=5-
.	.	0r	.	0ryy	.	.
!LO:TX:t=P:problem=kreska pseudotaktowa	!	!	!	!	!LO:TX:t=P:problem=kreska pseudotaktowa	!
2F#\	-ta	.	.	.	2a\	-chra
1G\	pul-	.	.	.	4b\	pul-
.	.	.	.	.	4a\	.
.	.	.	.	.	4b\	.
.	.	.	.	.	4ccny\	.
=6-	=6-	=6-	=6-	=6-	=6-	=6-
!LO:TX:t=P:problem=kreska pseudotaktowa	!	!	!	!	!	!
1G\	-chra	2r	.	0ryy	4ddny\	.
.	.	.	.	.	4ee\	.
.	.	1B\	pul-	.	4dd\	.
!	!	!	!	!	!LO:TX:t=P:problem=kreska pseudotaktowa	!
.	.	.	.	.	4cc\	.
00r	.	.	.	.	2b\	-chra
!	!	!LO:TX:t=P:problem=kreska pseudotaktowa	!	!	!LO:TX:t=P:problem=kreska pseudotaktowa	!
.	.	2c#X\	-chra	.	2r	.
=7-	=7-	=7-	=7-	=7-	=7-	=7-
!	!	!	!	!	!LO:TX:t=P:problem=kreska pseudotaktowa	!
!	!	!	!	!	!LO:TX:a:t=1.	!
*	*	*	*ij	*	*	*
.	.	1dny\	pul-	0ryy	1rdd	.
.	.	2d\	-chra	.	2r	.
*	*	*	*Xij	*	*	*
.	.	2.A/	pul-	.	2.cc#X\	pul-
=8-	=8-	=8-	=8-	=8-	=8-	=8-
.	.	.	.	0ryy	.	.
.	.	4A/	-chra	.	4cc#X\	-chra
!	!	!LO:TX:t=P:problem=kreska pseudotaktowa	!	!	!LO:TX:t=P:problem=kreska pseudotaktowa	!
.	.	2B\	es	.	2dd\	es
!LO:TX:t=P:problem=kreska pseudotaktowa	!	!	!	!	!	!
0r	.	2G/	o	.	2b\	.
.	.	2E/	Ma-	.	1b\	Ma-
=9-	=9-	=9-	=9-	=9-	=9-	=9-
!	!	!LO:TX:t=P:problem=kreska pseudotaktowa	!	!	!	!
.	.	1F#/	-ri-	0ryy	.	.
*	*	*	*	*	*custos:b	*
!	!	!	!	!	!LO:TX:t=P:problem=kreska pseudotaktowa	!
.	.	.	.	.	2a#X\	-ri-
!	!	!LO:TX:t=P:problem=cezura na 3. linii	!	!	!LO:TX:t=P:problem=cezura na 3. linii	!
*	*	*	*	*	*xywh-#70:7390,3713,6141,1042	*
!	!	!	!	!	!LO:LB:g=original	!
2r	.	2B,<\	-a	.	2b,<\	-a
!	!	!LO:TX:t=P:problem=kreska pseudotaktowa	!	!	!	!
*	*ij	*	*	*	*	*
1E\	to-	[2G/	pul-	.	1b\	pul-
=10-	=10-	=10-	=10-	=10-	=10-	=10-
.	.	2G/]	.	0ryy	.	.
*	*	*custos:B	*	*	*	*
!LO:TX:t=P:problem=kreska pseudotaktowa	!	!LO:TX:t=P:problem=kreska pseudotaktowa	!	!	!LO:TX:t=P:problem=kreska pseudotaktowa	!
2F#\	-ta	2A/	-chra	.	2any\	-chra
*	*	*	*	*	*	*ij
*	*	*xywh-#233:7271,2293,6194,866	*	*	*	*
!	!	!LO:LB:g=original	!	!	!	!
1G\	pul-	4B\	pul-	.	(4dd\	pul-
.	.	4A\	.	.	4ee\)	.
.	.	4B\	.	.	(4dd\	-chra
*	*	*	*	*	*	*Xij
.	.	4cny\	.	.	4ccny\)	.
=11-	=11-	=11-	=11-	=11-	=11-	=11-
2G\	-chra	4d\	.	0ryy	2b\	es
*	*Xij	*	*	*	*	*
.	.	4e\	.	.	.	.
!	!	!	!	!	!LO:TX:t=P:problem=kreska pseudotaktowa	!
2.Dny\	pul-	4d\	.	.	2r	.
!	!	!LO:TX:t=P:problem=kreska pseudotaktowa	!	!	!	!
.	.	4c\	.	.	.	.
!	!	!LO:TX:t=P:problem=cezura na 3. linii	!	!	!	!
.	.	2B,<\	-chra	.	2.b\	pul-
4D\	-chra	.	.	.	.	.
*custos:C	*	*	*	*	*	*
!LO:TX:t=P:problem=kreska pseudotaktowa	!	!	!	!	!	!
*	*	*	*ij	*	*	*
2E\	es	2.G/	pul-	.	.	.
.	.	.	.	.	4b\	-chra
=12-	=12-	=12-	=12-	=12-	=12-	=12-
*xywh-#320:7334,2617,6056,1098	*	*	*	*	*	*
!LO:LB:g=original	!	!	!	!	!LO:TX:t=P:problem=cezura na 4. linii	!
2C/	o	.	.	0ryy	2ccn,<\	es
.	.	4G/	-chra	.	.	.
*	*	*	*Xij	*	*	*
!	!	!LO:TX:t=P:problem=kreska pseudotaktowa	!	!	!LO:TX:t=P:problem=kreska pseudotaktowa	!
2AA/	Ma-	2A/	es	.	2cc\	Ma-
0BB/	-ri-	2F#/	o	.	4b\	-ri-
.	.	.	.	.	4a\	.
.	.	2G/	Ma-	.	4g\	.
.	.	.	.	.	4a\	.
=13-	=13-	=13-	=13-	=13-	=13-	=13-
.	.	1F#/	-ri-	0ryy	1b\	.
!LO:TX:t=P:problem=kreska pseudotaktowa	!	!LO:TX:t=P:problem=cezura na 1. linii	!	!	!LO:TX:t=P:problem=kreska pseudotaktowa	!
1E\	a	2E,</	-a	.	1b\	-a
!	!	!LO:TX:t=P:problem=kreska pseudotaktowa	!	!	!	!
.	.	2e\	et	.	.	.
=14-	=14-	=14-	=14-	=14-	=14-	=14-
00r	.	2.d\	ma-	0ryy	0r	.
.	.	4c\	-cu-	.	.	.
!	!	!LO:TX:t=P:problem=cezura na 3. linii	!	!	!	!
.	.	2B,<\	-la	.	.	.
.	.	1G/	non	.	.	.
=15-	=15-	=15-	=15-	=15-	=15-	=15-
!	!	!	!	!	!LO:TX:t=P:problem=kreska pseudotaktowa	!
.	.	.	.	0ryy	1r	.
.	.	1A\	eſt	.	.	.
.	.	.	.	.	2a\	Non
!	!	!	!	!	!LO:TX:t=P:problem=kreska pseudotaktowa	!
*	*	*	*ij	*	*	*
.	.	1B\	non	.	2dd\	est
=16-	=16-	=16-	=16-	=16-	=16-	=16-
*	*	*	*	*	*	*ij
!LO:TX:t=P:problem=kreska pseudotaktowa	!	!	!	!	!	!
0r	.	.	.	0ryy	2b\	non
!	!	!LO:TX:t=P:problem=kreska pseudotaktowa	!	!	!	!
.	.	2A\	eſt	.	1ee\	est
*	*	*	*Xij	*	*	*Xij
.	.	1B\	in	.	.	.
!	!	!	!	!	!LO:TX:t=P:problem=kreska pseudotaktowa	!
.	.	.	.	.	2dd#X\	in
=17-	=17-	=17-	=17-	=17-	=17-	=17-
!	!	!LO:TX:t=P:problem=kreska pseudotaktowa	!	!	!LO:TX:t=P:problem=kreska pseudotaktowa	!
2r	.	1E/	te	0ryy	1ee\	Te
2E\	et	.	.	.	.	.
*	*	*	*	*	*custos:b	*
!	!	!	!	!	!LO:TX:t=P:problem=kreska pseudotaktowa	!
2.D/	ma-	2r	.	.	1rdd	.
.	.	2A\	non	.	.	.
!LO:TX:t=P:problem=kreska pseudotaktowa	!	!	!	!	!	!
4C/	-cu-	.	.	.	.	.
=18-	=18-	=18-	=18-	=18-	=18-	=18-
*	*	*	*	*	*xywh-#71:1281,859,5880,781	*
!	!	!	!	!	!LO:PB:g=original	!
2BB/	-la	2d\	eſt	0ryy	2r	.
!	!	!	!	!	!LO:TX:t=P:problem=kreska pseudotaktowa	!
1GG/	non	2B\	in	.	2b\	et
!	!	!LO:TX:t=P:problem=kreska pseudotaktowa	!	!	!	!
.	.	1e\	Te	.	2.g/	ma-
1AA/	est	.	.	.	.	.
!	!	!	!	!	!LO:TX:t=P:problem=kreska pseudotaktowa	!
.	.	.	.	.	4f#/	-cu-
=19-	=19-	=19-	=19-	=19-	=19-	=19-
.	.	0r	.	0ryy	2e/	-la
*	*ij	*	*	*	*	*
1BB/	non	.	.	.	1d/	non
!LO:TX:t=P:problem=kreska pseudotaktowa	!	!	!	!	!	!
2AA/	est	.	.	.	1e/	est
*	*Xij	*	*	*	*	*
=20-	=20-	=20-	=20-	=20-	=20-	=20-
1BB/	in	2r	.	0ryy	.	.
!	!	!LO:TX:t=P:problem=kreska pseudotaktowa	!	!	!LO:TX:t=P:problem=kreska pseudotaktowa	!
.	.	2B\	et	.	2d#X/	in
!LO:TX:t=P:problem=kreska pseudotaktowa	!	!	!	!	!LO:TX:t=P:problem=kreska pseudotaktowa	!
1E\	Te	2.G/	ma-	.	1e/	Te
.	.	4F#/	-cu-	.	.	.
=21-	=21-	=21-	=21-	=21-	=21-	=21-
!	!	!LO:TX:t=P:problem=cezura na 1. linii	!	!	!	!
0r	.	2E,</	-la	0ryy	2r	.
!	!	!	!	!	!LO:TX:t=P:problem=kreska pseudotaktowa	!
.	.	2E/	non	.	2ee\	et
.	.	2F#/	eſt	.	2.ddny\	ma-
*	*	*custos:G	*	*	*	*
!	!	!LO:TX:t=P:problem=kreska pseudotaktowa	!	!	!	!
.	.	2F#/	in	.	.	.
!	!	!	!	!	!LO:TX:t=P:problem=kreska pseudotaktowa	!
.	.	.	.	.	4cc\	-cu-
=22-	=22-	=22-	=22-	=22-	=22-	=22-
*	*	*	*	*	*xywh-#71:717,468,6419,677	*
!LO:TX:t=P:problem=kreska pseudotaktowa	!	!LO:LB:g=original	!	!	!	!
*	*	*xywh-#233:7328,2852,6216,787	*	*	*	*
1r	.	2G/	te	0ryy	2b\	-la
!	!	!LO:TX:t=P:problem=kreska pseudotaktowa	!	!	!	!
.	.	2r	.	.	1g\	non
2E\	non	2r	.	.	.	.
!LO:TX:t=P:problem=cezura na 5. linii	!	!LO:TX:t=P:problem=kreska pseudotaktowa	!	!	!	!
2A,<\	est	2A\	non	.	1a\	est
=23-	=23-	=23-	=23-	=23-	=23-	=23-
!	!	!LO:TX:t=P:problem=cezura na 3. linii	!	!	!	!
*	*ij	*	*	*	*	*
2F#\	non	2d,<\	eſt	0ryy	.	.
*	*	*	*ij	*	*	*ij
2B\	est	2B\	non	.	[<2b\	non
*	*Xij	*	*	*	*	*
!	!	!LO:TX:t=P:problem=cezura na 3. linii	!	!	!	!
2G\	non	2e,<\	eſt	.	2b\]	.
*	*	*	*Xij	*	*	*
!LO:TX:t=P:problem=kreska pseudotaktowa	!	!	!	!	!LO:TX:t=P:problem=kreska pseudotaktowa	!
2E\	eſt	2e\	non	.	1b\	est
*	*	*	*	*	*	*Xij
=24-	=24-	=24-	=24-	=24-	=24-	=24-
1F#\	in	2c#X\	est	0ryy	.	.
!	!	!LO:TX:t=P:problem=kreska pseudotaktowa	!	!	!	!
.	.	2c#\	in	.	2a#X\	in
!LO:TX:t=P:problem=cezura na 2. linii	!	!	!	!	!LO:TX:t=P:problem=kreska pseudotaktowa	!
2BB,</	Te	2B,<\	Te	.	1b\	Te.
*custos:G	*	*	*	*	*	*
!LO:TX:t=P:problem=kreska pseudotaktowa	!	!	!	!	!	!
2B\	et	2d\	et	.	.	.
=25-	=25-	=25-	=25-	=25-	=25-	=25-
*xywh-#320:7385,3337,6013,1055	*	*	*	*	*	*
!LO:LB:g=original	!	!	!	!	!	!
2.G\	ma-	2.B\	ma-	0ryy	0r	.
!	!	!LO:TX:t=P:problem=kreska pseudotaktowa	!	!	!	!
4F#\	-cu-	4A/	-cu-	.	.	.
2E\	-la	2G/	-la	.	.	.
1D\	non	1A\	non	.	.	.
=26-	=26-	=26-	=26-	=26-	=26-	=26-
.	.	.	.	0ryy	2r	.
!	!	!LO:TX:t=P:problem=kreska pseudotaktowa	!	!	!	!
1E\	est	2G/	eſt	.	1g\	non
.	.	2r	.	.	.	.
!	!	!LO:TX:t=P:problem=kreska pseudotaktowa	!	!	!	!
*	*ij	*	*	*	*	*
1F#\	non	2A\	non	.	1any\	est
=27-	=27-	=27-	=27-	=27-	=27-	=27-
!	!	!LO:TX:t=P:problem=cezura na 3. linii	!	!	!	!
.	.	2d,<\	est	0ryy	.	.
*	*	*	*ij	*	*	*ij
1G\	est	2B\	non	.	1b\	non
*	*Xij	*	*	*	*	*
!	!	!LO:TX:t=P:problem=kreska pseudotaktowa	!	!	!	!
.	.	1e\	est	.	.	.
!	!	!	!	!	!LO:TX:t=P:problem=kreska pseudotaktowa	!
1A\	non	.	.	.	[2cc\	est
*	*	*	*Xij	*	*	*Xij
=28-	=28-	=28-	=28-	=28-	=28-	=28-
.	.	(4e\	non	0ryy	2cc\]	.
.	.	4d\)	.	.	.	.
!LO:TX:t=P:problem=kreska pseudotaktowa	!	!	!	!	!	!
2G\	est	(4e\	.	.	1b\	non
.	.	4f#\)	.	.	.	.
1B\	in	2d#X\	.	.	.	.
!	!	!	!	!	!LO:TX:t=P:problem=kreska pseudotaktowa	!
.	.	1e\	est	.	2b\	est
=29-	=29-	=29-	=29-	=29-	=29-	=29-
1BB/	.	.	.	0ryy	1b\	in
!	!	!LO:TX:t=P:problem=kreska pseudotaktowa	!	!	!	!
.	.	2d#X\	in	.	.	.
!LO:TX:t=P:problem=kreska pseudotaktowa	!	!LO:TX:t=P:problem=kreska pseudotaktowa	!	!	!LO:TX:t=P:problem=kreska pseudotaktowa	!
0E\;	Te	0e\;<	Te	.	0b\;	Te.
.	.	.	.	1ryy	.	.
=30||	=30||	=30||	=30||	=30||	=30||	=30||
*	*	*	*	*	*xywh-#71:716,1424,6506,833	*
*M3/2	*	*M3/2	*	*M3/2	*M3/2	*
!	!	!	!	!	!LO:TX:i:t=B. Vide.	!
2r	.	2r	.	1.ryy	2r	.
2r	.	2r	.	.	2r	.
!LO:TX:t=P:problem=kreska pseudotaktowa	!	!LO:TX:t=P:problem=kreska pseudotaktowa	!	!	!LO:TX:t=P:problem=kreska pseudotaktowa	!
2G\	Tu	2B\	Tu	.	2g/	Tu
=31-	=31-	=31-	=31-	=31-	=31-	=31-
2.D/	glo-	2.A\	glo-	1.ryy	2.f#/	glo-
4D/	-ri-	4A\	-ri-	.	4g/	-ri-
*	*	*custos:B	*	*	*	*
!LO:TX:t=P:problem=kreska pseudotaktowa	!	!LO:TX:t=P:problem=kreska pseudotaktowa	!	!	!LO:TX:t=P:problem=kreska pseudotaktowa	!
2D/	-a	2d\	-a	.	2a\	-a
=32-	=32-	=32-	=32-	=32-	=32-	=32-
*	*ij	*	*	*	*	*ij
*	*	*xywh-#233:7285,3389,5994,830	*	*	*	*
!	!	!LO:LB:g=original	!	!	!	!
2.E\	glo-	2.B\	glo-	1.ryy	2.g\	glo-
4E\	-ri-	4B\	-ri-	.	4a\	-ri-
!	!	!LO:TX:t=P:problem=kreska pseudotaktowa	!	!	!LO:TX:t=P:problem=kreska pseudotaktowa	!
2E\	-a	2e\	-a	.	2b\	-a
*	*Xij	*	*	*	*	*Xij
=33-	=33-	=33-	=33-	=33-	=33-	=33-
2D/	Je-	2B\	Je-	1.ryy	2b\	Je-
2.C/	-ru-	2G/	-ru-	.	2b\	-ru-
!	!	!LO:TX:t=P:problem=kreska pseudotaktowa	!	!	!LO:TX:t=P:problem=kreska pseudotaktowa	!
.	.	2A/	-sa-	.	2a\	-sa-
!LO:TX:t=P:problem=kreska pseudotaktowa	!	!	!	!	!	!
4C/	-sa-	.	.	.	.	.
=34-	=34-	=34-	=34-	=34-	=34-	=34-
!	!	!LO:TX:t=P:problem=cezura na 2. linii	!	!	!LO:TX:t=P:problem=cezura na 3. linii	!
1BB/	-lem	1F#/,<	-lem	1.ryy	1b\,<	-lem
*custos:F	*	*	*	*	*	*
!LO:TX:t=P:problem=kreska pseudotaktowa	!	!LO:TX:t=P:problem=kreska pseudotaktowa	!	!	!LO:TX:t=P:problem=kreska pseudotaktowa	!
2B\	Tu	2d\	Tu	.	2b\	Tu
=35-	=35-	=35-	=35-	=35-	=35-	=35-
*xywh-#320:7377,4015,6082,1115	*	*	*	*	*	*
!LO:LB:g=original	!	!	!	!	!	!
2.F#\	glo-	2.d\	glo-	1.ryy	2.a\	glo-
4F#\	-ri	4d\	-ri-	.	4b\	-ri-
!LO:TX:t=P:problem=kreska pseudotaktowa	!	!	!	!	!LO:TX:t=P:problem=kreska pseudotaktowa	!
2F#\	.	2A/	-a	.	2cc\	-a
=36-	=36-	=36-	=36-	=36-	=36-	=36-
*	*ij	*	*ij	*	*	*ij
2.G\	glo-	2.B\	glo-	1.ryy	2.b\	glo-
4G\	-ri-	4c\	-ri-	.	4a\	-ri-
!LO:TX:t=P:problem=kreska pseudotaktowa	!	!LO:TX:t=P:problem=kreska pseudotaktowa	!	!	!LO:TX:t=P:problem=kreska pseudotaktowa	!
2G\	-a	2d\	-a	.	2b\	-a
*	*Xij	*	*Xij	*	*	*Xij
=37-	=37-	=37-	=37-	=37-	=37-	=37-
2F#\	Je-	2d\	Je-	1.ryy	2a\	Je-
2.E\	-ru-	2d\	-ru-	.	2.g/	-ru-
!	!	!LO:TX:t=P:problem=kreska pseudotaktowa	!	!	!	!
.	.	2c#X\	-sa-	.	.	.
!LO:TX:t=P:problem=kreska pseudotaktowa	!	!	!	!	!LO:TX:t=P:problem=kreska pseudotaktowa	!
4E\	-sa-	.	.	.	4g/	-sa-
=38-	=38-	=38-	=38-	=38-	=38-	=38-
!	!	!	!	!	!LO:TX:t=P:problem=cezura na 2. linii	!
1D\	-lem	1d\	-lem	1.ryy	1f#/,<	-lem
!LO:TX:t=P:problem=kreska pseudotaktowa	!	!LO:TX:t=P:problem=kreska pseudotaktowa	!	!	!LO:TX:t=P:problem=kreska pseudotaktowa	!
2r	.	2r	.	.	2dd\	Tu
=39-	=39-	=39-	=39-	=39-	=39-	=39-
*custos:D	*	*	*	*	*	*
!LO:TX:b:t=Vertat(ur)	!	!	!	!	!	!
!LO:TX:t=P:problem=kreska pseudotaktowa	!	!	!	!	!	!
!LO:TX:a:t=1.	!	!LO:N:vis=00	!	!	!	!
1.r	.	00.r	.	1.ryy	4g/	glo-
.	.	.	.	.	4f#/	.
.	.	.	.	.	4g/	.
.	.	.	.	.	4a\	.
.	.	.	.	.	4b\	.
!	!	!	!	!	!LO:TX:t=P:problem=kreska pseudotaktowa	!
.	.	.	.	.	4g\	.
=40-	=40-	=40-	=40-	=40-	=40-	=40-
*xywh-#321:906,505,6348,1079	*	*	*	*	*	*
!LO:PB:g=original	!	!	!	!	!	!
2r	.	.	.	1.ryy	4a\	.
.	.	.	.	.	4g\	.
2r	.	.	.	.	4a\	.
.	.	.	.	.	4b\	.
!LO:TX:t=P:problem=kreska pseudotaktowa	!	!	!	!	!	!
2D/	Tu	.	.	.	4cc\	.
!	!	!	!	!	!LO:TX:t=P:problem=kreska pseudotaktowa	!
.	.	.	.	.	4a\	.
=41-	=41-	=41-	=41-	=41-	=41-	=41-
2.G\	glo-	.	.	1.ryy	2.b\	.
4G\	-ri-	.	.	.	4cc\	-ri-
!	!	!	!	!	!LO:TX:t=P:problem=kreska pseudotaktowa	!
4D/	-a	.	.	.	2dd\	-a
!LO:TX:t=P:problem=kreska pseudotaktowa	!	!	!	!	!	!
4D/	Je-	.	.	.	.	.
=42-	=42-	=42-	=42-	=42-	=42-	=42-
1AA/	-ru-	.	.	1.ryy	2dd\	Je-
.	.	.	.	.	2dd\	-ru-
*	*	*	*	*	*custos:dd	*
!	!	!	!	!	!LO:TX:b:t=vi-	!
!LO:TX:t=P:problem=kreska pseudotaktowa	!	!	!	!	!LO:TX:t=P:problem=podwojna kreska pseudotaktowa	!
2AA/	-sa-	.	.	.	2cc#X\	-sa-
=43-	=43-	=43-	=43-	=43-	=43-	=43-
!	!	!	!	!	!LO:TX:t=P:problem=takty 43-50 dopisane na gorze strony w wstawione za pomocą oznaczeń vi- -de, re= -tro	!
!LO:TX:t=P:problem=cezura na 2. linii	!	!LO:TX:t=P:problem=kreska pseudotaktowa	!	!	!LO:TX:t=-de	!
*	*	*	*	*	*xywh-#71:717,468,6419,677	*
!	!	!LO:N:vis=1	!	!	!LO:LB:g=original	!
1D\,<	-lem	1.r	.	1.ryy	1dd\	-lem
!LO:TX:t=P:problem=kreska pseudotaktowa	!	!	!	!	!LO:TX:t=P:problem=kreska pseudotaktowa	!
*xywh-#321:906,505,6348,1079	*	*	*	*	*	*
2A\	Tu	.	.	.	2a\	Tu
=44-	=44-	=44-	=44-	=44-	=44-	=44-
4D/	glo-	2r	.	1.ryy	2.a\	glo-
4C/	.	.	.	.	.	.
4D/	.	2r	.	.	.	.
4E/	.	.	.	.	4g/	-ri-
!	!	!LO:TX:t=P:problem=kreska pseudotaktowa	!	!	!LO:TX:t=P:problem=kreska pseudotaktowa	!
4F#/	.	2d\	Tu	.	2f#/	-a
!LO:TX:t=P:problem=kreska pseudotaktowa	!	!	!	!	!	!
4D/	.	.	.	.	.	.
=45-	=45-	=45-	=45-	=45-	=45-	=45-
*	*	*	*	*	*	*ij
4E\	.	4G/	glo-	1.ryy	2.b\	glo-
4D\	.	4F#/	.	.	.	.
4E\	.	4G/	.	.	.	.
4F#\	.	4A/	.	.	4a\	-ri-
4G\	.	4B/	.	.	4g/	-a
*	*	*	*	*	*	*Xij
!LO:TX:t=P:problem=kreska pseudotaktowa	!	!LO:TX:t=P:problem=kreska pseudotaktowa	!	!	!LO:TX:t=P:problem=kreska pseudotaktowa	!
4E\	.	4G/	.	.	4g/	Je-
=46-	=46-	=46-	=46-	=46-	=46-	=46-
4F#\	.	4A\	.	1.ryy	2.dd\	-ru-
4E\	.	4G\	.	.	.	.
4F#\	.	4A\	.	.	.	.
4G\	.	4B\	.	.	4dd\	-sa-
4A\	.	4cny\	.	.	4dd,<\	-lem
!LO:TX:t=P:problem=kreska pseudotaktowa	!	!LO:TX:t=P:problem=kreska pseudotaktowa	!	!	!LO:TX:t=P:problem=kreska pseudotaktowa	!
4F#\	.	4A\	.	.	4dd\	tu
=47-	=47-	=47-	=47-	=47-	=47-	=47-
2.G\	.	4B\	.	1.ryy	4g/	glo-
.	.	4A\	.	.	4f#/	.
.	.	4B\	.	.	4g/	.
4G\	ri-	4c\	.	.	4a/	.
!LO:TX:t=P:problem=kreska pseudotaktowa	!	!	!	!	!	!
2G\	-a	4d\	.	.	4b/	.
*	*	*custos:A	*	*	*	*
!	!	!LO:TX:t=P:problem=kreska pseudotaktowa	!	!	!LO:TX:t=P:problem=kreska pseudotaktowa	!
.	.	4B\	.	.	4g/	.
=48-	=48-	=48-	=48-	=48-	=48-	=48-
!	!	!LO:LB:g=original	!	!	!	!
*	*	*xywh-#233:7349,3861,6216,931	*	*	*	*
2D\	Je-	2.A/	.	1.ryy	4a\	.
.	.	.	.	.	4g\	.
2.F#\	-ru-	.	.	.	4a\	.
.	.	4G/	ri-	.	4b\	.
!	!	!LO:TX:t=P:problem=kreska pseudotaktowa	!	!	!LO:TX:t=P:problem=# above	!
.	.	2F#/	-a	.	4cc#X\	.
!LO:TX:t=P:problem=kreska pseudotaktowa	!	!	!	!	!LO:TX:t=P:problem=kreska pseudotaktowa	!
4F#\	-sa-	.	.	.	4a\	.
=49-	=49-	=49-	=49-	=49-	=49-	=49-
!LO:TX:t=P:problem=cezura na 4 linii	!	!	!	!	!	!
*	*	*	*ij	*	*	*
2G,<\	-lem	2.B\	glo-	1.ryy	2.b\	.
(2G\	Je-	.	.	.	.	.
!	!	!	!	!	!LO:TX:t=P:problem=# above	!
.	.	4B\	-ri-	.	4cc#X\	-ri-
!LO:TX:t=P:problem=kreska pseudotaktowa	!	!LO:TX:t=P:problem=kreska pseudotaktowa	!	!	!LO:TX:t=P:problem=kreska pseudotaktowa	!
2F#\)	.	2A\	-a	.	2dd\	-a
*	*	*	*Xij	*	*	*
=50-	=50-	=50-	=50-	=50-	=50-	=50-
1E\	-ru-	2.G/	glo-	1.ryy	2dd\	Je-
.	.	.	.	.	2dd\	-ru-
.	.	4F#/	-ri-	.	.	.
*	*	*	*	*	*custos:dd	*
!	!	!	!	!	!LO:TX:b:t=re=	!
!	!	!	!	!	!LO:TX:t=P:problem=kreska pseudotaktowa	!
2E\	-sa-	2E/	-a	.	2cc#X\	sa-
=51-	=51-	=51-	=51-	=51-	=51-	=51-
!	!	!	!	!	!LO:TX:t=-tro	!
!	!	!	!	!	!LO:TX:a:t=P:problem=cezura na 3. linii	!
!	!	!	!	!	!LO:TX:t=P:problem=kreska pseudotaktowa	!
*	*	*	*	*	*xywh-#71:872,2015,6236,799	*
!	!	!	!	!	!LO:LB:g=original	!
1D\	-lem	2A\	Je-	1.ryy	1.dd\,<	-lem
.	.	2.A\	-ru-	.	.	.
!LO:TX:t=P:problem=kreska pseudotaktowa	!	!	!	!	!	!
2D/	Tu	.	.	.	.	.
!	!	!LO:TX:t=P:problem=kreska pseudotaktowa	!	!	!	!
.	.	4A\	-sa-	.	.	.
=52-	=52-	=52-	=52-	=52-	=52-	=52-
!	!	!LO:TX:t=P:problem=cezura na 2. linii	!	!	!	!
4GG/	glo-	1G/,<	-lem	1.ryy	2.dd\	glo-
4FF#/	.	.	.	.	.	.
4GG/	.	.	.	.	.	.
4AA/	.	.	.	.	4ccny\	-ri-
!	!	!LO:TX:t=P:problem=kreska pseudotaktowa	!	!	!LO:TX:t=P:problem=kreska pseudotaktowa	!
4BB/	.	2g\	Tu	.	2b\	-a
!LO:TX:t=P:problem=kreska pseudotaktowa	!	!	!	!	!	!
4GG/	.	.	.	.	.	.
=53-	=53-	=53-	=53-	=53-	=53-	=53-
*	*	*	*	*	*	*ij
*xywh-#321:1084,1277,6169,814	*	*	*	*	*	*
!LO:LB:g=original	!	!	!	!	!	!
4AA/	.	4c\	glo-	1.ryy	2.ee\	glo-
4GG/	.	4B\	.	.	.	.
4AA/	.	4c\	.	.	.	.
4BB/	.	4d\	.	.	4dd\	-ri-
4C/	.	4e\	.	.	4ccn\	-a
*	*	*	*	*	*	*Xij
!LO:TX:t=P:problem=kreska pseudotaktowa	!	!LO:TX:t=P:problem=kreska pseudotaktowa	!	!	!LO:TX:t=P:problem=kreska pseudotaktowa	!
4AA/	.	4c\	.	.	4cc\	Je-
=54-	=54-	=54-	=54-	=54-	=54-	=54-
2.BB/	.	4d\	.	1.ryy	2.b\	-ru-
.	.	4c\	.	.	.	.
.	.	4d\	.	.	.	.
4BB/	-ri-	4e\	.	.	4b\	-sa-
!LO:TX:t=P:problem=kreska pseudotaktowa	!	!	!	!	!LO:TX:t=P:problem=cezura na 3. linii	!
2BB/	-a	4d\	.	.	4b,<\	-lem
!	!	!LO:TX:t=P:problem=kreska pseudotaktowa	!	!	!LO:TX:t=P:problem=kreska pseudotaktowa	!
.	.	4e\	.	.	4dd\	Tu
=55-	=55-	=55-	=55-	=55-	=55-	=55-
*	*ij	*	*	*	*	*
2.GG/	glo-	2.d\	.	1.ryy	4b\	glo-
.	.	.	.	.	4a\	.
.	.	.	.	.	4b\	.
4GG/	-ri-	4c\	-ri-	.	4cc\	.
!	!	!LO:TX:t=P:problem=kreska pseudotaktowa	!	!	!	!
2GG/	-a	2B\	-a	.	4dd\	.
!	!	!	!	!	!LO:TX:t=P:problem=kreska pseudotaktowa	!
.	.	.	.	.	4b\	.
=56-	=56-	=56-	=56-	=56-	=56-	=56-
*	*Xij	*	*ij	*	*	*
2.AA/	glo-	2.A/	glo-	1.ryy	2.cc\	.
4AA/	-ri-	4A/	-ri-	.	4b\	-ri-
!LO:TX:t=P:problem=kreska pseudotaktowa	!	!	!	!	!LO:TX:t=P:problem=kreska pseudotaktowa	!
2AA/	-a	2A/	-a	.	2a\	-a
*	*	*	*Xij	*	*	*
=57-	=57-	=57-	=57-	=57-	=57-	=57-
2E\	Je-	2G/	Je-	1.ryy	2b\	Je-
2BB/	-ru-	2.F#/	-ru-	.	2b\	-ru-
!LO:TX:t=P:problem=kreska pseudotaktowa	!	!	!	!	!LO:TX:t=P:problem=kreska pseudotaktowa	!
2BB/	-sa-	.	.	.	2b\	-sa-
!	!	!LO:TX:t=P:problem=kreska pseudotaktowa	!	!	!	!
.	.	4F#/	-sa-	.	.	.
=58-	=58-	=58-	=58-	=58-	=58-	=58-
!	!	!LO:TX:t=P:problem=cezura na 1. linii	!	!	!LO:TX:t=P:problem=kreska pseudotaktowa	!
1E\	-lem	2E,</	-lem	1.ryy	1.b\	-lem
.	.	2B\	tu	.	.	.
!LO:TX:t=P:problem=kreska pseudotaktowa	!	!	!	!	!	!
2r	.	2B\	lae-	.	.	.
=59-	=59-	=59-	=59-	=59-	=59-	=59-
!	!	!	!	!	!LO:N:vis=0	!
2r	.	2.e\	-ti-	1.ryy	0.r	.
2E\	Tu	.	.	.	.	.
.	.	4f#\	.	.	.	.
!LO:TX:t=P:problem=kreska pseudotaktowa	!	!	!	!	!	!
2E\	lae-	4d\	.	.	.	.
!	!	!LO:TX:t=P:problem=kreska pseudotaktowa	!	!	!	!
.	.	4e\	.	.	.	.
=60-	=60-	=60-	=60-	=60-	=60-	=60-
2.A\	-ti-	2.c#X\	.	1.ryy	.	.
4B\	.	4c#\	-ti-	.	.	.
4G\	.	4c#\	-a	.	.	.
!LO:TX:t=P:problem=kreska pseudotaktowa	!	!LO:TX:t=P:problem=kreska pseudotaktowa	!	!	!	!
4A\	.	4c#\	lae-	.	.	.
=61-	=61-	=61-	=61-	=61-	=61-	=61-
2.F#\	.	2.f#X\	ti-	1.ryy	2r	.
.	.	.	.	.	2a\	Tu
4F#\	-ti-	4g\	-.	.	.	.
!	!	!	!	!	!LO:TX:t=P:problem=kreska pseudotaktowa	!
4F#\	-a	4e\	.	.	2a\	lae-
!LO:TX:t=P:problem=kreska pseudotaktowa	!	!LO:TX:t=P:problem=kreska pseudotaktowa	!	!	!	!
4F#\	lae-	4f#\	.	.	.	.
=62-	=62-	=62-	=62-	=62-	=62-	=62-
2.B\	-ti-	2.d\	.	1.ryy	2.dd\	-ti-
4c\	.	4d\	-ti-	.	4ee\	.
4A\	.	2d\	-a	.	4cc#X\	.
!LO:TX:t=P:problem=kreska pseudotaktowa	!	!	!	!	!LO:TX:t=P:problem=kreska pseudotaktowa	!
4B\	.	.	.	.	4dd\	.
=63-	=63-	=63-	=63-	=63-	=63-	=63-
*	*	*custos:A	*	*	*	*
!	!	!LO:TX:a:t=1	!	!	!	!
2.G\	.	1.re	.	1.ryy	2.b\	.
4G\	-ti-	.	.	.	4cc#X\	-ti-
!LO:TX:t=P:problem=kreska pseudotaktowa	!	!	!	!	!LO:TX:t=P:problem=kreska pseudotaktowa	!
2F#\	-a	.	.	.	2dd\	-a
=64-	=64-	=64-	=64-	=64-	=64-	=64-
*	*	*xywh-#234:1097,369,6147,1157	*	*	*	*
!	!	!LO:PB:g=original	!	!	!	!
1A\	Is-	2r	.	1.ryy	1dd\	Is-
.	.	2A/	Tu	.	.	.
!LO:TX:t=P:problem=kreska pseudotaktowa	!	!LO:TX:t=P:problem=kreska pseudotaktowa	!	!	!LO:TX:t=P:problem=kreska pseudotaktowa	!
2AA/	-ra-	2A/	lae-	.	2cc#X\	-ra-
=65-	=65-	=65-	=65-	=65-	=65-	=65-
!LO:TX:t=P:problem=kreska pseudotaktowa	!	!	!	!	!LO:TX:t=P:problem=kreska pseudotaktowa	!
1.D\	-el	2.d\	-ti-	1.ryy	1.dd\	-el
.	.	4e\	.	.	.	.
.	.	4cny\	.	.	.	.
.	.	4d\	.	.	.	.
=66-	=66-	=66-	=66-	=66-	=66-	=66-
!LO:TX:t=P:problem=kreska pseudotaktowa	!	!	!	!	!LO:TX:t=P:problem=kreska pseudotaktowa	!
!	!	!	!	!	!LO:N:vis=0	!
1.rA	.	2.B\	.	1.ryy	0.r	.
.	.	4A/	-ti-	.	.	.
!	!	!LO:TX:t=P:problem=kreska pseudotaktowa	!	!	!	!
.	.	2G/	-a	.	.	.
=67-	=67-	=67-	=67-	=67-	=67-	=67-
*xywh-#321:1049,1842,6255,793	*	*	*	*	*	*
2r	.	1d\	Is-	1.ryy	.	.
2D\	Tu	.	.	.	.	.
!LO:TX:t=P:problem=kreska pseudotaktowa	!	!	!	!	!	!
2D\	lae-	2D/	-ra-	.	.	.
=68-	=68-	=68-	=68-	=68-	=68-	=68-
!	!	!LO:TX:t=P:problem=kreska pseudotaktowa	!	!	!	!
*	*	*	*	*	*xywh-#71:977,2467,6184,781	*
2.G\	-ti-	1.G/	-el	1.ryy	2r	.
.	.	.	.	.	2b\	Tu
4A\	.	.	.	.	.	.
!	!	!	!	!	!LO:TX:t=P:problem=kreska pseudotaktowa	!
4F#\	.	.	.	.	2b\	lae-
!LO:TX:t=P:problem=kreska pseudotaktowa	!	!	!	!	!	!
4G\	.	.	.	.	.	.
=69-	=69-	=69-	=69-	=69-	=69-	=69-
2.E\	.	2r	.	1.ryy	2.ee\	-ti-
.	.	2E/	Tu	.	.	.
4E\	-ti-	.	.	.	4ff#X\	.
!LO:TX:t=P:problem=kreska pseudotaktowa	!	!LO:TX:t=P:problem=kreska pseudotaktowa	!	!	!	!
2E\	-a	2E/	lae-	.	4dd\	.
!	!	!	!	!	!LO:TX:t=P:problem=kreska pseudotaktowa	!
.	.	.	.	.	4ee\	.
=70-	=70-	=70-	=70-	=70-	=70-	=70-
2.AA/	Is-	2.A\	-ti-	1.ryy	2.cc#X\	.
4AA/	-ra-	4B\	.	.	4cc#\	-ti-
!LO:TX:t=P:problem=kreska pseudotaktowa	!	!	!	!	!	!
2AA/	-el	4G/	.	.	4cc#\	-a
!	!	!	!	!	!LO:TX:t=P:problem=kreska pseudotaktowa	!
.	.	4A/	.	.	4cc#\	lae-
=71-	=71-	=71-	=71-	=71-	=71-	=71-
!LO:TX:t=P:problem=kreska pseudotaktowa	!	!	!	!	!	!
!LO:N:vis=0	!	!	!	!	!	!
0.r	.	2.F#/	.	1.ryy	2.dd#X\	-ti-
.	.	4F#/	-ti-	.	4dd#\	-ti-
!	!	!LO:TX:t=P:problem=kreska pseudotaktowa	!	!	!LO:TX:t=P:problem=kreska pseudotaktowa	!
.	.	2F#/	-a	.	2ee\	-a
=72-	=72-	=72-	=72-	=72-	=72-	=72-
.	.	1B\	Is-	1.ryy	1ee\	Is-
!	!	!	!	!	!LO:TX:t=P:problem=kreska pseudotaktowa	!
.	.	2B\	-ra-	.	2dd#X\	-ra-
=73-	=73-	=73-	=73-	=73-	=73-	=73-
!	!	!	!	!	!LO:TX:t=P:problem=kreska pseudotaktowa	!
2E\	Tu	1E/	-el	1.ryy	1ee\	-el
4E\	ho-	.	.	.	.	.
4E\	-no-	.	.	.	.	.
!	!	!LO:TX:t=P:problem=kreska pseudotaktowa	!	!	!	!
4F#\	-ri-	2r	.	.	2r	.
!LO:TX:t=P:problem=kreska pseudotaktowa	!	!	!	!	!	!
4F#\	-fi-	.	.	.	.	.
=74-	=74-	=74-	=74-	=74-	=74-	=74-
*xywh-#321:1177,2335,6183,793	*	*	*	*	*	*
!	!	!	!	!	!LO:N:vis=00	!
2.G\	-cen-	2B\	Tu	1.ryy	00.r	.
.	.	4B\	ho-	.	.	.
4F#\	-ti-	4B\	-no-	.	.	.
!LO:TX:t=P:problem=kreska pseudotaktowa	!	!	!	!	!	!
2E\	-a	4c#X\	-ri-	.	.	.
!	!	!LO:TX:t=P:problem=kreska pseudotaktowa	!	!	!	!
.	.	4c#\	-fi-	.	.	.
=75-	=75-	=75-	=75-	=75-	=75-	=75-
2.D/	po-	2.d\	-cen-	1.ryy	.	.
4D/	-pu-	4cny\	-ti-	.	.	.
!LO:TX:t=P:problem=kreska pseudotaktowa	!	!LO:TX:t=P:problem=kreska pseudotaktowa	!	!	!	!
2G\	-li	2B\	-a	.	.	.
=76-	=76-	=76-	=76-	=76-	=76-	=76-
2.F#\	No-	2.A\	po-	1.ryy	.	.
4G\	.	4A\	-pu-	.	.	.
*	*	*custos:c#	*	*	*	*
!	!	!LO:TX:t=P:problem=kreska pseudotaktowa	!	!	!	!
4F#\	.	2d\	-li	.	.	.
!LO:TX:t=P:problem=kreska pseudotaktowa	!	!	!	!	!	!
4G\	.	.	.	.	.	.
=77-	=77-	=77-	=77-	=77-	=77-	=77-
*	*	*xywh-#234:1318,1270,5878,799	*	*	*	*
!	!	!LO:LB:g=original	!	!	!	!
1A\	.	2c#X\	no-	1.ryy	.	.
.	.	2d\	.	.	.	.
!	!	!LO:TX:t=P::problem=kreska pseudotaktowa&colon;między nutą a kropką	!	!	!	!
1G\	.	[<2e\	.	.	.	.
=78-	=78-	=78-	=78-	=78-	=78-	=78-
!	!	!	!	!	!LO:N:vis=0	!
!	!	!LO:N:xstem:cue	!	!	!LO:TX:t=P:problem=kreska pseudotaktowa	!
.	.	4e\]	.	1.ryy	0.r	.
.	.	4B\	.	.	.	.
!LO:TX:t=P:problem=kreska pseudotaktowa	!	!	!	!	!	!
1F#\	.	2e\	.	.	.	.
!	!	!LO:TX:t=P:problem=kreska pseudotaktowa	!	!	!	!
.	.	2d#X\	.	.	.	.
=79-	=79-	=79-	=79-	=79-	=79-	=79-
!	!	!LO:TX:t=P:problem=cezura na 5. linii	!	!	!	!
1E\	-stri.	1e\,<	-stri	1.ryy	.	.
!LO:TX:t=P:problem=kreska pseudotaktowa	!	!	!	!	!	!
2r	.	2dny\	Tu	.	.	.
=80-	=80-	=80-	=80-	=80-	=80-	=80-
!LO:N:vis=00	!	!	!	!	!	!
00.r	.	1G/	ad-	1.ryy	2b\	Tu
.	.	.	.	.	4b\	ho-
.	.	.	.	.	4b\	-no-
!	!	!LO:TX:t=P:problem=kreska pseudotaktowa	!	!	!	!
.	.	2A/	-vo-	.	4cc#X\	-ri-
!	!	!	!	!	!LO:TX:t=P:problem=kreska pseudotaktowa	!
.	.	.	.	.	4cc#\	-fi-
=81-	=81-	=81-	=81-	=81-	=81-	=81-
.	.	2.B\	-ca-	1.ryy	2.ddny\	-cen-
.	.	4A/	-ta	.	4ccny\	-ti-
!	!	!	!	!	!LO:TX:t=P:problem=kreska pseudotaktowa	!
.	.	4G/	pec-	.	2b\	-a
!	!	!LO:TX:t=P:problem=kreska pseudotaktowa	!	!	!	!
.	.	4G/	-ca-	.	.	.
=82-	=82-	=82-	=82-	=82-	=82-	=82-
.	.	1d\	-to-	1.ryy	2.a\	po-
.	.	.	.	.	4a\	-pu-
!	!	!	!	!	!LO:TX:t=P:problem=kreska pseudotaktowa	!
.	.	2d\	-rum	.	2dd\	-li
=83-	=83-	=83-	=83-	=83-	=83-	=83-
.	.	1A\	o	1.ryy	2cc#X\	no-
.	.	.	.	.	2dd\	.
!	!	!	!	!	!LO:TX:t=P::problem=kreska pseudotaktowa&colon;między nutą i kropką	!
.	.	1E/	Ma-	.	2.ee\	.
=84-	=84-	=84-	=84-	=84-	=84-	=84-
!LO:TX:t=P:problem=kreska pseudotaktowa	!	!	!	!	!	!
!LO:N:vis=1	!	!	!	!	!	!
1.rD	.	.	.	1.ryy	.	.
.	.	.	.	.	4b\	.
!	!	!LO:TX:t=P:problem=kreska pseudotaktowa	!	!	!	!
.	.	1B\	-ri-	.	2ee\	.
!	!	!	!	!	!LO:TX:t=P:problem=kreska pseudotaktowa	!
.	.	.	.	.	2dd#X\	.
=85-	=85-	=85-	=85-	=85-	=85-	=85-
!	!	!LO:TX:t=P:problem=cezura na 1. linii	!	!	!LO:TX:t=P:problem=kreska pseudotaktowa	!
2E\	Tu	2E,</	-a	1.ryy	1.ee\	-stri
4E\	ho-	4G/	ho-	.	.	.
4E\	-no-	4G/	-no-	.	.	.
4F#\	-ri-	4A/	-ri-	.	.	.
!LO:TX:t=P:problem=kreska pseudotaktowa	!	!LO:TX:t=P:problem=kreska pseudotaktowa	!	!	!	!
4F#\	-fi-	4A/	-fi-	.	.	.
=86-	=86-	=86-	=86-	=86-	=86-	=86-
*	*	*	*	*	*xywh-#71:1046,2918,6158,842	*
!LO:LB:g=original	!	!	!	!	!LO:LB:g=original	!
2.G\	-cen-	2.B\	-cen-	1.ryy	2b\	Tu
.	.	.	.	.	4b\	ho-
4F#\	-ti-	4A/	-ti-	.	4b\	-no-
!LO:TX:t=P:problem=kreska pseudotaktowa	!	!LO:TX:t=P:problem=kreska pseudotaktowa	!	!	!	!
2E\	-a	2G/	-a	.	4cc#X\	-ri-
!	!	!	!	!	!LO:TX:t=P:problem=kreska pseudotaktowa	!
.	.	.	.	.	4cc#\	-fi-
=87-	=87-	=87-	=87-	=87-	=87-	=87-
2.D\	po-	2.F#/	po-	1.ryy	2.ddny\	-cen-
4D\	-pu-	4F#/	-pu-	.	4ccny\	-ti-
!	!	!	!	!	!LO:TX:t=P:problem=kreska pseudotaktowa	!
2G\	-li	(4G/	-li	.	2b\	-a
.	.	4A/)	.	.	.	.
=88-	=88-	=88-	=88-	=88-	=88-	=88-
1F#\	no-	(1B\	no-	1.ryy	2.cc#X\	po-
.	.	.	.	.	4b\	-pu-
!LO:TX:t=P:problem=kreska pseudotaktowa	!	!LO:TX:t=P:problem=kreska pseudotaktowa	!	!	!LO:TX:t=P:problem=kreska pseudotaktowa	!
2F#\	-stri	2c#X\)	.	.	2a#X\	-li
=89-	=89-	=89-	=89-	=89-	=89-	=89-
*	*	*custos:A	*	*	*	*
!	!	!LO:TX:t=P:problem=kreska pseudotaktowa	!	!	!	!
2BB/	Tu	1.B\	-stri	1.ryy	1b\	no-
4BB/	ho-	.	.	.	.	.
4BB/	-no-	.	.	.	.	.
!	!	!	!	!	!LO:TX:t=P:problem=cezura na 4. linii	!
!	!	!	!	!	!LO:TX:t=P:problem=kreska pseudotaktowa	!
4C/	-ri-	.	.	.	2b,<\	-stri
4C/	-fi-	.	.	.	.	.
=90-	=90-	=90-	=90-	=90-	=90-	=90-
*	*	*xywh-#234:1294,1819,5962,811	*	*	*	*
!	!	!LO:LB:g=original	!	!	!	!
2.D\	-cen-	2A\	Tu	1.ryy	2f#/	Tu
.	.	4A\	ho-	.	4f#/	ho-
4C/	-ti-	4A\	-no-	.	4f#/	-no-
!LO:TX:t=P:problem=kreska pseudotaktowa	!	!	!	!	!	!
2BB/	-a	4B\	-ri-	.	4g#X/	-ri-
!	!	!LO:TX:t=P:problem=kreska pseudotaktowa	!	!	!LO:TX:t=P:problem=kreska pseudotaktowa	!
.	.	4B\	-fi-	.	4g#/	-fi-
=91-	=91-	=91-	=91-	=91-	=91-	=91-
2.AA/	po-	2.c#X\	-cen-	1.ryy	2.any\	-cen-
4AA/	-pu-	4B\	-ti-	.	4gny\	-ti-
!	!	!LO:TX:t=P:problem=kreska pseudotaktowa	!	!	!LO:TX:t=P:problem=kreska pseudotaktowa	!
2D\	-li	2A/	-a	.	2f#/	-a
=92-	=92-	=92-	=92-	=92-	=92-	=92-
*	*ij	*	*	*	*	*
2.BB/	po-	2.d\	po-	1.ryy	2.b\	po-
4BB/	-pu-	4cny\	pu-	.	4a\	-pu-
!	!	!LO:TX:t=P:problem=kreska pseudotaktowa	!	!	!	!
2E\	-li	2B\	-li	.	2g\	-li
*	*Xij	*	*	*	*	*
=93-	=93-	=93-	=93-	=93-	=93-	=93-
!	!	!	!	!	!LO:TX:t=P:problem=kreska pseudotaktowa	!
1.BB/	no-	1.B\	no-	1.ryy	1.f#/	no-
=94-	=94-	=94-	=94-	=94-	=94-	=94-
!LO:TX:t=P:problem=kreska pseudotaktowa	!	!LO:TX:t=P:problem=kreska pseudotaktowa	!	!	!LO:TX:t=P:problem=kreska pseudotaktowa	!
!LO:N:vis=0	!	!	!	!	!LO:N:vis=0	!
0.E\;	-stri	0.B\	-stri	1%3ryy	0.g#X\;	-stri.
=95||	=95||	=95||	=95||	=95||	=95||	=95||
*M2/1	*	*M2/1	*	*M2/1	*M2/1	*
*met(c|)	*	*met(c|)	*	*met(c|)	*met(c|)	*
!	!	!	!	!	!LO:TX:t=P:problem=kreska pseudotaktowa	!
0r	.	2r	.	0ryy	0r	.
.	.	1e\	Al-	.	.	.
.	.	1d\	-le-	.	.	.
=96-	=96-	=96-	=96-	=96-	=96-	=96-
!LO:TX:t=P:problem=kreska pseudotaktowa	!	!	!	!	!	!
1r	.	.	.	0ryy	2r	.
.	.	1c\	-lu-	.	1ee\	al
2r	.	.	.	.	.	.
1B\	al-	1B\	-ia	.	1dd\	.
=97-	=97-	=97-	=97-	=97-	=97-	=97-
.	.	.	.	0ryy	.	.
!	!	!LO:TX:t=P:problem=kreska pseudotaktowa	!	!	!LO:TX:t=P:problem=kreska pseudotaktowa	!
1A\	.	2r	.	.	[<2cc\	le-
.	.	2c\	al-	.	2cc\]	.
1G\	.	2d\	-le-	.	1b\	.
=98-	=98-	=98-	=98-	=98-	=98-	=98-
.	.	2e\	-lu-	0ryy	.	.
!LO:TX:t=P:problem=kreska pseudotaktowa	!	!LO:TX:t=P:problem=kreska pseudotaktowa	!	!	!	!
[<2F#\	-le-	2f#X\	-ia	.	1a\	-lu-
*	*	*	*ij	*	*	*
2F#\]	.	2A\	al-	.	.	.
!	!	!	!	!	!LO:TX:t=P:problem=kreska pseudotaktowa	!
1E\	.	2B\	-le-	.	2g/	-ia
=99-	=99-	=99-	=99-	=99-	=99-	=99-
*	*	*	*	*	*xywh-#71:1011,3561,6167,703	*
.	.	2c#X\	-lu-	0ryy	2r	.
!	!	!	!	!	!LO:TX:t=P:problem=kreska pseudotaktowa	!
1D\	.	1d\	.	.	2a\	al-
.	.	.	.	.	2b\	-le-
!	!	!	!	!	!LO:TX:t=P:problem=kreska pseudotaktowa	!
2E\	.	[<2cn\	-ia	.	2cc\	.
*	*	*	*Xij	*	*	*
=100-	=100-	=100-	=100-	=100-	=100-	=100-
!	!	!LO:TX:t=P:problem=cezura na 3. linii	!	!	!	!
!	!	!LO:TX:t=P:problem=kreska pseudotaktowa	!	!	!	!
2F#\	.	2c\],<	.	0ryy	2a\	.
*custos:D	*	*	*	*	*	*
!LO:TX:t=P:problem=kreska pseudotaktowa	!	!	!	!	!LO:TX:t=P:problem=kreska pseudotaktowa	!
2G\	.	2B\	al-	.	2dd\	.
!LO:TX:t=P:problem=kreska pseudotaktowa	!	!	!	!	!	!
!LO:LB:g=original	!	!	!	!	!	!
*xywh-#321:1213,2886,6176,764	*	*	*	*	*	*
1D\	-lu-	2A\	-le-	.	1dd\	-lu-
.	.	2d\	-lu-	.	.	.
=101-	=101-	=101-	=101-	=101-	=101-	=101-
!LO:TX:t=P:problem=cezura na 1. linii	!	!	!	!	!	!
!LO:TX:t=P:problem=kreska pseudotaktowa	!	!LO:TX:t=P:problem=kreska pseudotaktowa	!	!	!LO:TX:t=P:problem=kreska pseudotaktowa	!
1GG/,	-ia	1d\	-ia	0ryy	1b\	-ia
*	*	*	*	*	*	*ij
00r	.	2B\	al-	.	2dd\	al-
*	*	*custos:d#	*	*	*	*
!	!	!	!	!	!LO:TX:t=P:problem=kreska pseudotaktowa	!
.	.	2c#X\	-le-	.	2ee\	-le-
=102-	=102-	=102-	=102-	=102-	=102-	=102-
*	*	*xywh-#234:1145,2314,6057,805	*	*	*	*
!	!	!LO:LB:g=original	!	!	!	!
.	.	2d#X\	-lu-	0ryy	2ff#X\	lu-
!	!	!	!	!	!LO:TX:t=P:problem=kreska pseudotaktowa	!
.	.	2e\	-ia	.	2gg\	-ia
*	*	*	*ij	*	*	*Xij
.	.	2G/	al-	.	2b\	al-
!	!	!	!	!	!LO:TX:t=P:problem=kreska pseudotaktowa	!
.	.	2A\	-le-	.	2cc\	-le-
=103-	=103-	=103-	=103-	=103-	=103-	=103-
.	.	2B\	-lu-	0ryy	2dd\	-lu-
!	!	!LO:TX:t=P:problem=kreska pseudotaktowa	!	!	!LO:TX:t=P:problem=kreska pseudotaktowa	!
.	.	2cn\	-ia	.	2ee\	-ia
*	*	*	*Xij	*	*	*
!LO:TX:t=P:problem=kreska pseudotaktowa	!	!	!	!	!	!
00r	.	1A\	al-	.	2.ccn\	al-
!	!	!	!	!	!LO:TX:t=P:problem=kreska pseudotaktowa	!
.	.	.	.	.	4dd\	.
=104-	=104-	=104-	=104-	=104-	=104-	=104-
.	.	1E/	-le-	0ryy	2b\	-le-
.	.	.	.	.	1ee\	.
!	!	!LO:TX:t=P:problem=kreska pseudotaktowa	!	!	!	!
.	.	1B\	-lu-	.	.	.
!	!	!	!	!	!LO:TX:t=P:problem=kreska pseudotaktowa	!
.	.	.	.	.	2dd#X\	lu-
=105-	=105-	=105-	=105-	=105-	=105-	=105-
!	!	!LO:TX:t=P:problem=cezura na 1. linii	!	!	!LO:TX:t=P:problem=kreska pseudotaktowa	!
.	.	2E,</	ia	0ryy	1ee\	-ia
.	.	1e\	al-	.	.	.
2E\	al-	.	.	.	1rdd	.
2F#\	-le-	1dny\	.	.	.	.
=106-	=106-	=106-	=106-	=106-	=106-	=106-
2G#X\	-lu-	.	.	0ryy	2rb	.
!LO:TX:t=P:problem=kreska pseudotaktowa	!	!LO:TX:t=P:problem=kreska pseudotaktowa	!	!	!LO:TX:a:t=P:problem=nuta przekreslona	!
2A\	-ia	[<2c#X\	.	.	1ee\	al-
*	*ij	*	*	*	*	*
2C/	al-	2c#\]	.	.	.	.
!	!	!	!	!	!LO:TX:a:t=P:problem=nuta przekreslona	!
2D\	-le-	1B\	.	.	1ddny\	-le-
=107-	=107-	=107-	=107-	=107-	=107-	=107-
2E\	-lu-	.	.	0ryy	.	.
!	!	!	!	!	!LO:TX:t=P:problem=kreska pseudotaktowa	!
2F#\	-ia	1A\	.	.	[<2cc#X\	.
*	*Xij	*	*	*	*	*
2D/	al-	.	.	.	2cc#y\]	.
2BB/	-le-	2d\	-le-	.	1b\	-lu-
=108-	=108-	=108-	=108-	=108-	=108-	=108-
!LO:TX:t=P:problem=kreska pseudotaktowa	!	!	!	!	!	!
1F#\	-lu-	1c#X\	-lu-	0ryy	.	.
.	.	.	.	.	2a#X\	-ia
!LO:TX:t=P:problem=cezura na 2. linii	!	!LO:TX:t=P:problem=kreska pseudotaktowa	!	!	!LO:TX:t=P:problem=kreska pseudotaktowa	!
2BB,</	-ia	1B\	-ia	.	1b\	.
1B\	al-	.	.	.	.	.
=109-	=109-	=109-	=109-	=109-	=109-	=109-
!	!	!LO:TX:t=P:problem=kreska pseudotaktowa	!	!	!LO:TX:t=P:problem=kreska pseudotaktowa	!
.	.	1re	.	0ryy	1r	.
1A\	.	.	.	.	.	.
*	*	*	*ij	*	*	*
.	.	2cn\	al-	.	2r	.
!LO:TX:t=P:problem=kreska pseudotaktowa	!	!	!	!	!	!
[<2Gny\	-le-	2d\	-le-	.	1b\	al-
=110-	=110-	=110-	=110-	=110-	=110-	=110-
2G\]	.	2e\	-lu-	0ryy	.	.
!	!	!LO:TX:t=P:problem=kreska pseudotaktowa	!	!	!	!
1F#\	.	2f#X\	-ia	.	1any\	.
*	*	*	*Xij	*	*	*
.	.	(2A\	al-	.	.	.
!	!	!	!	!	!LO:TX:t=P:problem=kreska pseudotaktowa	!
1E\	.	2B\)	.	.	2g/	-le-
=111-	=111-	=111-	=111-	=111-	=111-	=111-
*	*	*	*	*	*xywh-#71:1098,4126,6045,781	*
.	.	2A/	-le-	0ryy	(2a\	-lu-
!	!	!LO:TX:t=P:problem=kreska pseudotaktowa	!	!	!	!
2D#X\	-lu-	2F#/	-lu-	.	2b\)	.
!LO:TX:t=P:problem=cezura na 2. linii	!	!	!	!	!	!
!LO:TX:t=P:problem=kreska pseudotaktowa	!	!LO:TX:t=P:problem=cezura na 3. linii	!	!	!LO:TX:t=P:problem=kreska pseudotaktowa	!
1E\,<	-ia	2B,<\	-ia	.	1b\	-ia
.	.	1B\	al-	.	.	.
=112-	=112-	=112-	=112-	=112-	=112-	=112-
!	!	!	!	!	!LO:TX:t=P:problem=kreska pseudotaktowa	!
*	*ij	*	*	*	*	*
2BB/	al-	.	.	0ryy	0r	.
2C#X/	-le-	1A\	.	.	.	.
2D#X\	-lu-	.	.	.	.	.
!LO:TX:t=P:problem=kreska pseudotaktowa	!	!	!	!	!	!
2E\	-ia	1G/	.	.	.	.
*	*Xij	*	*	*	*	*
=113-	=113-	=113-	=113-	=113-	=113-	=113-
2GG/	al-	.	.	0ryy	2b\	al-
!	!	!	!	!	!LO:TX:t=P:problem=kreska pseudotaktowa	!
2AA/	-le-	1F#/	.	.	2ccny\	-le-
2BB/	-lu-	.	.	.	2dd\	-lu-
!LO:TX:t=P:problem=kreska pseudotaktowa	!	!	!	!	!LO:TX:t=P:problem=kreska pseudotaktowa	!
2Cn/	-ia	1E/	-le-	.	2ee\	-ia
=114-	=114-	=114-	=114-	=114-	=114-	=114-
*	*	*	*	*	*	*ij
2AA/	al-	.	.	0ryy	2cc\	al-
!	!	!LO:TX:t=P:problem=kreska pseudotaktowa	!	!	!LO:TX:t=P:problem=kreska pseudotaktowa	!
2AA/	-le-	2A/	.	.	2cc\	-le-
*custos:E	*	*	*	*	*	*
!LO:TX:t=P:problem=kreska pseudotaktowa	!	!	!	!	!	!
*	*	*xywh-#234:1270,2827,5908,799	*	*	*	*
!	!	!LO:LB:g=original	!	!	!	!
1BB/	-lu-	1F#/	-lu-	.	1b\	-lu-
=115-	=115-	=115-	=115-	=115-	=115-	=115-
*xywh-#321:1313,3379,5962,743	*	*	*	*	*	*
!LO:LB:g=original	!	!LO:TX:t=P:problem=kreska pseudotaktowa	!	!	!LO:TX:t=P:problem=kreska pseudotaktowa	!
2E\	-ia	1G#X/	-ia	0ryy	1b\	-ia
*	*	*	*	*	*	*Xij
1E\	al-	.	.	.	.	.
!	!	!	!	!	!LO:TX:t=P:problem=kreska pseudotaktowa	!
.	.	2Gn/	al-	.	1rdd	.
1Dny\	.	2A/	-le-	.	.	.
=116-	=116-	=116-	=116-	=116-	=116-	=116-
.	.	2B\	-lu-	0ryy	2rb	.
!LO:TX:t=P:problem=kreska pseudotaktowa	!	!LO:TX:t=P:problem=kreska pseudotaktowa	!	!	!	!
[<2C/	le-	2c\	-ia	.	1ee\	al-
*	*	*	*ij	*	*	*
2C/]	.	2A\	al-	.	.	.
1BB/	.	2d\	-le-	.	1dd\	.
=117-	=117-	=117-	=117-	=117-	=117-	=117-
.	.	2B\	-lu-	0ryy	.	.
!	!	!LO:TX:t=P:problem=kreska pseudotaktowa	!	!	!LO:TX:t=P:problem=kreska pseudotaktowa	!
1AA/	.	2e\	-ia	.	[<2cc\	-le-
*	*	*	*Xij	*	*	*
.	.	2A\	al-	.	2cc\]	.
!LO:TX:t=P:problem=kreska pseudotaktowa	!	!	!	!	!	!
2GG/	.	2d\	.	.	1b\	.
=118-	=118-	=118-	=118-	=118-	=118-	=118-
1BB/	.	2B\	-le-	0ryy	.	.
.	.	2G/	.	.	1ee\	-lu-
1BB/	-lu-	2E/	-lu-	.	.	.
!	!	!	!	!	!LO:TX:t=P:problem=kreska pseudotaktowa	!
.	.	2B\	.	.	2dd#X\	.
=119-	=119-	=119-	=119-	=119-	=119-	=119-
!LO:TX:t=P:problem=kreska pseudotaktowa	!	!LO:TX:t=P:problem=kreska pseudotaktowa	!	!	!LO:TX:t=P:problem=kreska pseudotaktowa	!
0E\;	-ia	0G#X/;	-ia	0ryy	0ee\	-ia
=120||	=120||	=120||	=120||	=120||	=120||	=120||
!	!	!LO:TX:t=P:problem="adagio" dopisane czerwona kredka	!	!	!	!
2A\	al-	2A\	al-	0ryy	2cc\	al-
2G#X\	-le-	2B\	-le-	.	2b\	-le-
1A\	-lu-	1A\	-lu-	.	1cc\	-lu-
=121-	=121-	=121-	=121-	=121-	=121-	=121-
0E\;	-ia.	0G#X/;	-ia	0ryy	0b\;	-ia
==	==	==	==	==	==	==
*-	*-	*-	*-	*-	*-	*-
!!!RDF**kern: > = above
!!!RDF**kern: < = below
!!!system-decoration: [(s1,s2,s3,s4)]
!!!EED: Andrzej Borzym
!!!EEV: 2021-03-20
!!!ENC: Kamil Watkowski
!!!END: 2021-03-04
!!!YEC: Copyright 2022 Narodowy Instytut Fryderyka Chopina (https://polishscores.org)
!!!YEM: License CC-BY-4.0 (https://creativecommons.org/licenses/by/4.0)
!!!IIIF: https://repozytorium.nifc.pl/islandora/object/pl-kk%3A1956/datastream/IIIF/view
!!!ENC-iiif: Lidia Bialucha
!!!END-iiif: 2022-09-14
